X: 7382
T: Clivigarth
R: reel
M: 4/4
K: Fdorian
B,2|G3FE2D2|E2B,2C2A,2|G,2B,2E2G2|F3EF2B,E/F/|
G3FE2G,2|A,2c2A2F2|E2B,2A,2B,2|E6B,2|
G3FE2D2|E2B,2C2A,2|G,2B,2E2G2|F3=AB2_A2|
G3FE2D2|E2C2=B,2G,2|A,2F2D2B,2|E6B=A|
BG2Ec3B|B6F2|F2D2B,2A2|G6E2|
D2E2F2G2|c3BA3F|D3B, DA3|G6BA|
BG2ee2d>F|F2A2d2c2|BB3ed2e|g3e Bc3|
ec2BB2D2|E6||

